X: 2963
T: Basel On The Threshold
R: reel
M: 4/4
K: Dmajor
FG|:AAAB A2 F2|GGGA G2 E2|FFFG F2 D2|ED B,2 A,2 D2|
AAAB A2 F2|GGGA G2 E2|FEDB, A,2 C2|1 D6 FG:|2 D6 AG]|
|:FdAd FdAd|EdAd EdAd|DdAd DdAd|EdAd EdAd|
FdAd FdAd|EdAd EdAd|1 DdAd Ddfe|d6 AG:|2 Ddfe dAF[EA]|[D8d8]||

